X:514
T: DREI GAENS IM HABERSTROH
N: E1785
O: Europa, Mitteleuropa, Deutschland
R: Scherz -, Gesellschafts - Lied
M: 4/4
L: 1/8
K: F
F2 | F2F2F3G | A4z2
A2 | A2A2A3B | c4z2
A2 | c2c2c3B | A4F2
F2 | A2c2A3G | F4C2
c2 | c2c2c2c2 | c6

@@@ Tune index: 5198
